outputs/icons/hardware/monitor_round.svg

<svg xmlns="http://www.w3.org/2000/svg" width="1200" height="1200" fill="none"><g clip-path="url(#a)"><path fill="#000" d="M1000 150H200c-55 0-100 45-100 100v550c0 55 45 100 100 100h150c-27.5 27.5-50 43.5-50 79.5 0 39 31.5 70.5 70.5 70.5H829c39 0 70.5-31.5 70.5-70.5 0-36-22-51.5-50-79.5h150c55 0 100-45 100-100V250c.5-55-44.5-100-99.5-100m0 650H200V250h800z"/></g><defs><clipPath id="a"><path fill="#fff" d="M0 0h1200v1200H0z"/></clipPath></defs></svg>

<svg width="1200" height="1200" viewBox="0 0 1200 1200" fill="none" xmlns="http://www.w3.org/2000/svg"><g clip-path="url(#clip0_238_1283)"><path d="M1000 150H200C145 150 100 195 100 250V800C100 855 145 900 200 900H350C322.5 927.5 300 943.5 300 979.5C300 1018.5 331.5 1050 370.5 1050H829C868 1050 899.5 1018.5 899.5 979.5C899.5 943.5 877.5 928 849.5 900H999.5C1054.5 900 1099.5 855 1099.5 800V250C1100 195 1055 150 1000 150ZM1000 800H200V250H1000V800Z" fill="#1D1E23"/></g><defs><clipPath id="clip0_238_1283"><path width="24" fill="white" d="M0 0H1200V1200H0V0z"/></clipPath></defs></svg>
